public/cards/1_blue.svg

<svg xmlns="http://www.w3.org/2000/svg" width="242" height="362" fill="none"><path fill="#fff" stroke="#000" stroke-width="2" d="M201 1H41C18.909 1 1 18.909 1 41v280c0 22.091 17.909 40 40 40h160c22.091 0 40-17.909 40-40V41c0-22.091-17.909-40-40-40z"/><path fill="#55F" d="M201 21H41c-11.046 0-20 8.954-20 20v280c0 11.046 8.954 20 20 20h160c11.046 0 20-8.954 20-20V41c0-11.046-8.954-20-20-20z"/><path fill="#fff" fill-rule="evenodd" d="M181 81C92.634 81 21 152.634 21 241c0 22.091 17.909 40 40 40 88.366 0 160-71.634 160-160 0-22.091-17.909-40-40-40z" clip-rule="evenodd"/><path fill="#55F" fill-rule="evenodd" d="m113 121-20 20v24l20-20v96h20V121h-20z" clip-rule="evenodd"/><path fill="#fff" fill-rule="evenodd" d="M41 31 31 41v12l10-10v48h10V31H41zm160 300 10-10v-12l-10 10v-48h-10v60h10z" clip-rule="evenodd"/></svg>

<svg width="242" height="362" viewBox="0 0 242 362" fill="none" xmlns="http://www.w3.org/2000/svg">
<path d="M201 1H41C18.9086 1 1 18.9086 1 41V321C1 343.091 18.9086 361 41 361H201C223.091 361 241 343.091 241 321V41C241 18.9086 223.091 1 201 1Z" fill="white" stroke="black" stroke-width="2"/>
<path d="M201 21H41C29.9543 21 21 29.9543 21 41V321C21 332.046 29.9543 341 41 341H201C212.046 341 221 332.046 221 321V41C221 29.9543 212.046 21 201 21Z" fill="#5555FF"/>
<path fill-rule="evenodd" clip-rule="evenodd" d="M181 81C92.6344 81 21 152.634 21 241C21 263.091 38.9086 281 61 281C149.366 281 221 209.366 221 121C221 98.9086 203.091 81 181 81Z" fill="white"/>
<path fill-rule="evenodd" clip-rule="evenodd" d="M113 121L93 141V165L113 145V241H133V121H113Z" fill="#5555FF"/>
<path fill-rule="evenodd" clip-rule="evenodd" d="M41 31L31 41V53L41 43V91H51V31H41Z" fill="white"/>
<path fill-rule="evenodd" clip-rule="evenodd" d="M201 331L211 321V309L201 319V271H191V331H201Z" fill="white"/>
</svg>
